X: 1
T: Viola Turpeinen tanssit Kiipill\"a
C:
R: polka
Z: 2013 John Chambers <jc:trillian.mit.edu>
M: 2/4
L: 1/16
K: D
|: "D"A2BA "A7"G2AG | "D"F2A2 d2{A}df | "A7"f2e2 ecAc | "(D)"e2d2 "D"d4 :|
|: "D"{e}f2f2 fAdf | "G"a2g2 g2{a}gf | "A7"e2e2 ecAc | "(D)"e2d2 "D"d4 :|
